icons/desktop/16/private-mode-fill-16.svg

<svg width="16" height="16" viewBox="0 0 16 16" fill="none" xmlns="http://www.w3.org/2000/svg">
<path d="M15.7203 9.28332C14.962 9.28332 14.5754 8.72707 14.4307 7.97126C14.2212 6.87622 13.857 5.84104 13.4254 4.80835C13.2034 4.27704 12.7969 3.05728 12.1259 2.91759C11.3626 2.75795 10.6891 3.17451 9.81853 4.94056C9.10263 6.39729 8.61871 7.41252 8.61871 7.41252V7.42249L8.12732 7.41751C8.12732 7.41751 8.12233 7.41751 8.11484 7.41751C8.11484 7.41751 8.08491 7.41751 8.04749 7.41751C8.03752 7.41751 8.03003 7.41751 8.02006 7.41751C8.01257 7.41751 8.00509 7.41751 7.99761 7.41751C7.99012 7.41751 7.98264 7.41751 7.97516 7.41751C7.96518 7.41751 7.9552 7.41751 7.94772 7.41751C7.9103 7.41751 7.88037 7.41751 7.88037 7.41751C7.88037 7.41751 7.8679 7.41751 7.8679 7.42L7.3765 7.42499V7.41501C7.3765 7.41501 6.89258 6.39729 6.17669 4.94305C5.30863 3.17451 4.63265 2.76044 3.86936 2.92008C3.19836 3.05977 2.79177 4.28203 2.56977 4.81085C2.13824 5.84353 1.77405 6.87622 1.56452 7.97376C1.41985 8.72956 1.03571 9.28332 0.274912 9.28582C0.0803478 9.28582 -0.0493616 9.49036 0.0179875 9.67245C0.180124 10.1115 0.679006 10.3908 1.09557 10.553C0.908492 10.6029 0.349744 10.4881 0.3248 10.7725C0.304845 11.0045 0.888537 11.2389 1.04568 11.3138C2.51489 12.0297 3.86686 13.3143 5.60547 13.0873C6.36127 12.9875 6.91254 12.4487 7.53115 12.1145C7.823 11.9573 8.1772 11.9573 8.46905 12.1145C9.08766 12.4487 9.63893 12.9875 10.3947 13.0873C12.1333 13.3143 13.4853 12.0297 14.9545 11.3138C15.1117 11.2364 15.6929 11.0045 15.6754 10.7725C15.653 10.4906 15.0942 10.6029 14.9046 10.553C15.3212 10.3908 15.8201 10.1115 15.9822 9.67245C16.0496 9.49036 15.9174 9.28831 15.7253 9.28582L15.7203 9.28332ZM3.4054 9.65998C3.38295 9.42301 3.89181 9.24092 4.07639 9.21098C5.17393 9.0264 6.62817 9.46043 6.98238 10.6103C5.97464 11.5408 3.89929 10.8997 3.4054 9.66247V9.65998ZM9.01034 10.6103C9.36454 9.46043 10.8188 9.0264 11.9163 9.21098C12.1009 9.24092 12.6098 9.42301 12.5873 9.65998C12.0909 10.8972 10.0181 11.5408 9.01034 10.6079V10.6103Z" fill="black"/>
</svg>

<!-- This Source Code Form is subject to the terms of the Mozilla Public
   - License, v. 2.0. If a copy of the MPL was not distributed with this
   - file, You can obtain one at http://mozilla.org/MPL/2.0/. -->
<svg xmlns="http://www.w3.org/2000/svg" width="16" height="16" fill="context-fill" fill-opacity="context-fill-opacity" viewBox="0 0 16 16">
    <path d="M15.72 9.283c-.758 0-1.145-.556-1.29-1.312-.209-1.095-.573-2.13-1.005-3.163-.222-.531-.628-1.75-1.3-1.89-.762-.16-1.436.257-2.306 2.023-.716 1.456-1.2 2.472-1.2 2.472v.01l-.492-.005H7.88s-.012 0-.012.002l-.492.005v-.01s-.483-1.018-1.2-2.472C5.31 3.175 4.634 2.76 3.87 2.92c-.67.14-1.077 1.362-1.3 1.89-.43 1.034-.795 2.066-1.004 3.164-.145.756-.53 1.31-1.29 1.312-.195 0-.324.204-.257.386.162.44.661.719 1.078.881-.188.05-.746-.065-.771.22-.02.232.564.466.72.54 1.47.717 2.822 2.001 4.56 1.774.756-.1 1.308-.638 1.926-.973a.99.99 0 0 1 .938 0c.619.335 1.17.874 1.926.973 1.738.227 3.09-1.057 4.56-1.773.157-.078.738-.31.72-.541-.022-.282-.58-.17-.77-.22.416-.162.915-.442 1.077-.88.068-.183-.065-.385-.257-.387zM3.405 9.66c-.022-.237.487-.42.671-.449 1.098-.185 2.552.25 2.906 1.4-1.007.93-3.083.289-3.577-.949zm5.605.95c.355-1.15 1.809-1.584 2.906-1.399.185.03.694.212.671.449-.496 1.237-2.569 1.88-3.577.948z" />
</svg>
